picto/accessible-right-framed.svg

<svg class="color-immutable" width="30" height="30" viewBox="0 0 30 30" fill="none" xmlns="http://www.w3.org/2000/svg"><path d="M30 0H0V30H30V0Z" fill="#2D327D"/><path d="M25.5 3C26.325 3 27 3.675 27 4.5V25.5C27 26.325 26.325 27 25.5 27H4.5C3.675 27 3 26.325 3 25.5V4.5C3 3.675 3.675 3 4.5 3H25.5ZM25.5 2.625H4.5C3.46613 2.625 2.625 3.46613 2.625 4.5V25.5C2.625 26.5339 3.46613 27.375 4.5 27.375H25.5C26.5339 27.375 27.375 26.5339 27.375 25.5V4.5C27.375 3.46613 26.5339 2.625 25.5 2.625Z" fill="white"/><path d="M14.1075 7.62884C14.1075 8.51121 13.3924 9.22634 12.51 9.22634C11.6277 9.22634 10.9124 8.51121 10.9124 7.62884C10.9124 6.74639 11.6277 6.03119 12.51 6.03119C13.3925 6.03119 14.1075 6.74646 14.1075 7.62884Z" fill="white"/><path d="M21.2712 21.0832L19.1103 16.0027C18.9607 15.6511 18.6162 15.4228 18.2339 15.4228H14.5449L14.347 13.8351H17.4014C17.723 13.8351 17.9833 13.5745 17.9833 13.2531C17.9833 12.9317 17.723 12.6708 17.4014 12.6708H14.202L13.9595 10.7259C13.8692 10.0009 13.2081 9.48636 12.4831 9.57658C11.7581 9.66696 11.2434 10.328 11.3339 11.053L11.9679 16.1409C11.9755 16.2015 12.0006 16.356 12.0006 16.3756C12.0006 16.9018 12.4269 17.3281 12.9531 17.3281H17.604L19.5182 21.8287C19.6724 22.1911 20.0247 22.4086 20.3953 22.4086C20.5196 22.4086 20.6459 22.384 20.7676 22.3324C21.2514 22.1266 21.4769 21.5671 21.2712 21.0832Z" fill="white"/><path d="M18.3683 20.4355C17.5827 21.766 16.135 22.6593 14.4779 22.6593C11.9839 22.6593 9.96224 20.6375 9.96224 18.1436C9.96224 16.8905 10.473 15.757 11.2973 14.9388L11.1174 13.3868C9.62676 14.4418 8.65259 16.1785 8.65259 18.1436C8.65259 21.361 11.2607 23.9689 14.4779 23.9689C16.2955 23.9689 17.9184 23.1361 18.9868 21.8317L18.3683 20.4355Z" fill="white"/></svg>

<svg class="color-immutable" width="30" height="30" viewBox="0 0 30 30" fill="none" xmlns="http://www.w3.org/2000/svg"><g clip-path="url(#a)"><path d="M30 0H0v30h30V0Z" fill="#2D327D"/><path d="M25.5 3c.825 0 1.5.675 1.5 1.5v21c0 .825-.675 1.5-1.5 1.5h-21c-.825 0-1.5-.675-1.5-1.5v-21C3 3.675 3.675 3 4.5 3h21Zm0-.375h-21A1.877 1.877 0 0 0 2.625 4.5v21c0 1.034.841 1.875 1.875 1.875h21a1.877 1.877 0 0 0 1.875-1.875v-21A1.877 1.877 0 0 0 25.5 2.625Z" fill="#fff"/><path d="M14.107 7.629a1.597 1.597 0 1 1-3.194 0 1.597 1.597 0 0 1 3.194 0ZM21.271 21.083l-2.16-5.08a.952.952 0 0 0-.877-.58h-3.69l-.197-1.588h3.054a.582.582 0 1 0 0-1.164h-3.199l-.242-1.945a1.323 1.323 0 0 0-2.626.327l.634 5.088c.008.06.033.215.033.235 0 .526.426.952.952.952h4.651l1.914 4.5a.953.953 0 0 0 1.753-.745Z" fill="#fff"/><path d="M18.368 20.436a4.516 4.516 0 1 1-7.071-5.497l-.18-1.552a5.825 5.825 0 1 0 7.87 8.445l-.619-1.396Z" fill="#fff"/></g><defs><clipPath id="a"><path fill="#fff" d="M0 0h30v30H0z"/></clipPath></defs></svg>
